packages/foundations/assets/icons/functional/images/transportation/pedestrian_inverted.svg

<svg xmlns="http://www.w3.org/2000/svg" width="32" height="32" fill="none"><path fill="#1A1C1F" fill-rule="evenodd" d="M15.973 2.184c-1.098.178-2.08 1.094-2.32 2.163a3.6 3.6 0 0 0 0 1.279c.314 1.398 1.765 2.39 3.177 2.17a2.89 2.89 0 0 0 2.343-2.123c.299-1.148-.203-2.41-1.222-3.07-.544-.352-1.344-.521-1.978-.419m.774 1.709c.102.028.279.128.393.222.533.44.541 1.275.016 1.736-.727.638-1.849.114-1.849-.864 0-.77.698-1.301 1.44-1.094m-1.12 5.639c-.298.111-5.016 2.615-5.133 2.723-.216.203-.276.423-.577 2.141-.308 1.759-.307 1.838.025 2.17.467.467 1.272.167 1.415-.526.031-.154.15-.803.264-1.442.113-.64.215-1.171.226-1.182.041-.039 3.003-1.571 3.014-1.559.007.007-.13 1.379-.304 3.051-.174 1.671-.316 3.183-.315 3.359.001.573.043.626 2.084 2.671l1.869 1.871.817 3.202c.45 1.761.855 3.274.901 3.362a.92.92 0 0 0 .62.467c.453.076.96-.341.96-.789 0-.211-1.666-6.844-1.771-7.051-.03-.059-.893-.949-1.918-1.978l-1.864-1.871.405-3.889c.24-2.294.392-3.971.372-4.091-.078-.467-.651-.803-1.09-.639m2.359 2.521a1 1 0 0 0-.415.614c-.053.287.091.537.69 1.196l.581.638 1.186.612c1.311.676 1.473.738 1.765.672.538-.121.867-.72.64-1.16-.127-.245-.324-.372-1.5-.967l-1.066-.539-.4-.455c-.22-.251-.498-.515-.618-.587-.273-.163-.619-.173-.863-.024m-4.876 8.986a1.1 1.1 0 0 0-.333.425 847 847 0 0 0-3.187 7.149c-.205.513-.016.993.46 1.175.427.163.846-.01 1.061-.439.07-.141.841-1.858 1.713-3.817 1.709-3.84 1.706-3.832 1.484-4.213a.853.853 0 0 0-1.198-.28"/></svg>

<svg width="32" height="32" viewBox="0 0 32 32" fill="none" xmlns="http://www.w3.org/2000/svg"><path d="M15.973 2.184 C 14.875 2.362,13.893 3.278,13.653 4.347 C 13.577 4.685,13.577 5.288,13.653 5.626 C 13.967 7.024,15.418 8.016,16.830 7.796 C 17.960 7.621,18.884 6.783,19.173 5.673 C 19.472 4.525,18.970 3.263,17.951 2.603 C 17.407 2.251,16.607 2.082,15.973 2.184 M16.747 3.893 C 16.849 3.921,17.026 4.021,17.140 4.115 C 17.673 4.555,17.681 5.390,17.156 5.851 C 16.429 6.489,15.307 5.965,15.307 4.987 C 15.307 4.217,16.005 3.686,16.747 3.893 M15.627 9.532 C 15.329 9.643,10.611 12.147,10.494 12.255 C 10.278 12.458,10.218 12.678,9.917 14.396 C 9.609 16.155,9.610 16.234,9.942 16.566 C 10.409 17.033,11.214 16.733,11.357 16.040 C 11.388 15.886,11.507 15.237,11.621 14.598 C 11.734 13.958,11.836 13.427,11.847 13.416 C 11.888 13.377,14.850 11.845,14.861 11.857 C 14.868 11.864,14.731 13.236,14.557 14.908 C 14.383 16.579,14.241 18.091,14.242 18.267 C 14.243 18.840,14.285 18.893,16.326 20.938 L 18.195 22.809 19.012 26.011 C 19.462 27.772,19.867 29.285,19.913 29.373 C 20.035 29.609,20.286 29.798,20.533 29.840 C 20.986 29.916,21.493 29.499,21.493 29.051 C 21.493 28.840,19.827 22.207,19.722 22.000 C 19.692 21.941,18.829 21.051,17.804 20.022 L 15.940 18.151 16.345 14.262 C 16.585 11.968,16.737 10.291,16.717 10.171 C 16.639 9.704,16.066 9.368,15.627 9.532 M17.986 12.053 C 17.789 12.174,17.614 12.431,17.571 12.667 C 17.518 12.954,17.662 13.204,18.261 13.863 L 18.842 14.501 20.028 15.113 C 21.339 15.789,21.501 15.851,21.793 15.785 C 22.331 15.664,22.660 15.065,22.433 14.625 C 22.306 14.380,22.109 14.253,20.933 13.658 L 19.867 13.119 19.467 12.664 C 19.247 12.413,18.969 12.149,18.849 12.077 C 18.576 11.914,18.230 11.904,17.986 12.053 M13.110 21.039 C 12.986 21.123,12.865 21.278,12.777 21.464 C 12.547 21.951,9.704 28.327,9.590 28.613 C 9.385 29.126,9.574 29.606,10.050 29.788 C 10.477 29.951,10.896 29.778,11.111 29.349 C 11.181 29.208,11.952 27.491,12.824 25.532 C 14.533 21.692,14.530 21.700,14.308 21.319 C 14.065 20.903,13.503 20.772,13.110 21.039 " fill="#1A1C1F" stroke="none" fill-rule="evenodd"></path></svg>
